X:1
T: Cuttyman and Treladle
C:
R:Reel
Q: 232
K:A
M:4/4
L:1/8
|:ce ea e2 cA|ce e=g d2 B=G|ce ea ce ae|=gb eg d2 B=G|
ce ea e2 cA|ce e=g d2 B=G|ce ea ce ae|=gb eg d2 B=G|
e2 cA eA cA|e2 cA d=G BG|e2 cA eA cA|=gb eg d2 B=G|
e2 cA eA cA|e2 cA d=G BG|e2 cA eA cA|=gb eg d2 B=G:|
